fs/braces_20_regular.svg

<svg viewBox="0 0 20 20" fill="none" xmlns="http://www.w3.org/2000/svg" height="1em" width="1em">
  <path d="M6.5 3C5.11929 3 4 4.11929 4 5.5V8.38197C4 8.87472 3.72331 9.32545 3.28459 9.54865C3.11627 9.62913 3 9.80099 3 10C3 10.199 3.11627 10.3709 3.28459 10.4513C3.72331 10.6745 4 11.1253 4 11.618V14.5C4 15.8807 5.11929 17 6.5 17C6.77614 17 7 16.7761 7 16.5C7 16.2239 6.77614 16 6.5 16C5.67157 16 5 15.3284 5 14.5V11.618C5 11.0029 4.75555 10.4249 4.33834 10C4.75556 9.57511 5 8.9971 5 8.38197V5.5C5 4.67157 5.67157 4 6.5 4C6.77614 4 7 3.77614 7 3.5C7 3.22386 6.77614 3 6.5 3ZM13.5 3C14.8807 3 16 4.11929 16 5.5V8.38197C16 8.87472 16.2767 9.32545 16.7154 9.54865C16.8837 9.62913 17 9.80099 17 10C17 10.199 16.8837 10.3709 16.7154 10.4513C16.2767 10.6745 16 11.1253 16 11.618V14.5C16 15.8807 14.8807 17 13.5 17C13.2239 17 13 16.7761 13 16.5C13 16.2239 13.2239 16 13.5 16C14.3284 16 15 15.3284 15 14.5V11.618C15 11.0029 15.2444 10.4249 15.6617 10C15.2444 9.57511 15 8.9971 15 8.38197V5.5C15 4.67157 14.3284 4 13.5 4C13.2239 4 13 3.77614 13 3.5C13 3.22386 13.2239 3 13.5 3Z" fill="#212121"/>
</svg>

<svg viewBox="0 0 20 20" fill="none" xmlns="http://www.w3.org/2000/svg" height="1em" width="1em">
  <path d="M6.5 3A2.5 2.5 0 0 0 4 5.5v2.882c0 .493-.277.943-.715 1.167a.5.5 0 0 0 0 .902c.438.223.715.674.715 1.167V14.5A2.5 2.5 0 0 0 6.5 17a.5.5 0 0 0 0-1A1.5 1.5 0 0 1 5 14.5v-2.882c0-.615-.244-1.193-.662-1.618A2.309 2.309 0 0 0 5 8.382V5.5A1.5 1.5 0 0 1 6.5 4a.5.5 0 0 0 0-1Zm7 0A2.5 2.5 0 0 1 16 5.5v2.882c0 .493.277.943.715 1.167a.5.5 0 0 1 0 .902A1.31 1.31 0 0 0 16 11.618V14.5a2.5 2.5 0 0 1-2.5 2.5.5.5 0 0 1 0-1 1.5 1.5 0 0 0 1.5-1.5v-2.882c0-.615.244-1.193.662-1.618A2.309 2.309 0 0 1 15 8.382V5.5A1.5 1.5 0 0 0 13.5 4a.5.5 0 0 1 0-1Z" fill="#212121"/>
</svg>
